icons/ArrowUpRight_filled.svg

<svg width="24" height="24" viewBox="0 0 24 24" fill="none" xmlns="http://www.w3.org/2000/svg">
<path fill-rule="evenodd" clip-rule="evenodd" d="M18.5997,4.15041c0.6903,0 1.25,0.55964 1.25,1.25v11.31369c0,0.6904 -0.5597,1.25 -1.25,1.25c-0.6904,0 -1.25,-0.5596 -1.25,-1.25v-8.29592l-11.06549,11.06542c-0.48815,0.4882 -1.27961,0.4882 -1.76776,0c-0.48816,-0.4881 -0.48816,-1.2796 0,-1.7677l11.06545,-11.06549h-8.29595c-0.69036,0 -1.25,-0.55965 -1.25,-1.25c0,-0.69036 0.55964,-1.25 1.25,-1.25z" fill="#002B51"/>
</svg>

<svg width="24" height="24" viewBox="0 0 24 24" fill="none" xmlns="http://www.w3.org/2000/svg">
<path fill-rule="evenodd" clip-rule="evenodd" d="M18.5997 4.15041C19.29 4.15041 19.8497 4.71005 19.8497 5.40041V16.7141C19.8497 17.4045 19.29 17.9641 18.5997 17.9641C17.9093 17.9641 17.3497 17.4045 17.3497 16.7141V8.41818L6.28421 19.4836C5.79606 19.9718 5.0046 19.9718 4.51645 19.4836C4.02829 18.9955 4.02829 18.204 4.51645 17.7159L15.5819 6.65041H7.28595C6.59559 6.65041 6.03595 6.09076 6.03595 5.40041C6.03595 4.71005 6.59559 4.15041 7.28595 4.15041H18.5997Z" fill="#002B51"/>
</svg>
